X:0957
T:A Western Isle Air.
M:C
L:1/8
Q:1/2=132 "Lively"
I: :: :|
Z:Jack Campin * www.campin.me.uk * 2009
K:E Minor
e2e2 dBB2|cAA2 GAB2|eee2 dBB2|cAA2 GEE2:|
cAAA dBB2|cAAA dBG2|cAAA dBB2|cAA2 GEE2:|
<end>
<start>
